assets/icon/achievements/calendar.svg

<svg id="Capa_1" enable-background="new 0 0 512 512" height="512" viewBox="0 0 512 512" width="512" xmlns="http://www.w3.org/2000/svg"><g><path d="m391.017 251.454h35.714c8.074 0 14.643-6.569 14.643-14.643v-35.714c0-8.074-6.569-14.643-14.643-14.643h-35.714c-8.074 0-14.643 6.569-14.643 14.643v35.714c0 8.074 6.569 14.643 14.643 14.643zm.357-50h35v35h-35zm-.357 145h35.714c8.074 0 14.643-6.569 14.643-14.643v-35.714c0-8.074-6.569-14.643-14.643-14.643h-35.714c-8.074 0-14.643 6.569-14.643 14.643v35.714c0 8.074 6.569 14.643 14.643 14.643zm.357-50h35v35h-35zm-102.273-45h35.714c8.074 0 14.643-6.569 14.643-14.643v-35.714c0-8.074-6.569-14.643-14.643-14.643h-35.714c-8.074 0-14.643 6.569-14.643 14.643v35.714c0 8.074 6.569 14.643 14.643 14.643zm.357-50h35v35h-35zm-168.475 170.546h-35.714c-8.074 0-14.643 6.569-14.643 14.643v35.714c0 8.074 6.569 14.643 14.643 14.643h35.714c8.074 0 14.643-6.569 14.643-14.643v-35.714c0-8.074-6.569-14.643-14.643-14.643zm-.357 50h-35v-35h35zm.357-235.546h-35.714c-8.074 0-14.643 6.569-14.643 14.643v35.714c0 8.074 6.569 14.643 14.643 14.643h35.714c8.074 0 14.643-6.569 14.643-14.643v-35.714c0-8.075-6.569-14.643-14.643-14.643zm-.357 50h-35v-35h35zm168.475 107.773h35.714c8.074 0 14.643-6.569 14.643-14.643v-35.714c0-8.074-6.569-14.643-14.643-14.643h-35.714c-8.074 0-14.643 6.569-14.643 14.643v35.714c0 8.074 6.569 14.643 14.643 14.643zm.357-50h35v35h-35zm159.365-259.953h-32.066v-11.467c0-12.576-10.231-22.807-22.807-22.807h-3.444c-12.575 0-22.806 10.231-22.806 22.807v11.467h-223.4v-11.467c0-12.576-10.231-22.807-22.807-22.807h-3.444c-12.576 0-22.807 10.231-22.807 22.807v11.467h-32.065c-20.705 0-37.55 16.845-37.55 37.55v402.676c0 20.678 16.822 37.5 37.5 37.5h385.748c20.678 0 37.5-16.822 37.5-37.5v-402.676c-.001-20.705-16.846-37.55-37.552-37.55zm-66.123-11.467c0-4.305 3.502-7.807 7.807-7.807h3.444c4.305 0 7.807 3.502 7.807 7.807v11.467h-19.058zm-272.457 0c0-4.305 3.502-7.807 7.807-7.807h3.444c4.305 0 7.807 3.502 7.807 7.807v11.467h-19.057v-11.467zm361.131 451.693c0 12.407-10.093 22.5-22.5 22.5h-385.748c-12.407 0-22.5-10.093-22.5-22.5v-.047c6.284 4.735 14.095 7.547 22.551 7.547h304.083c10.03 0 19.46-3.906 26.552-10.999l77.562-77.562zm-85.215-17.059c.588-2.427.908-4.958.908-7.563v-50.064c0-9.44 7.681-17.121 17.122-17.121h50.063c2.605 0 5.136-.32 7.563-.908zm85.215-315.987h-319.574c-4.142 0-7.5 3.358-7.5 7.5s3.358 7.5 7.5 7.5h319.574v194.118c0 9.441-7.681 17.122-17.122 17.122h-50.063c-17.712 0-32.122 14.41-32.122 32.121v50.064c0 9.441-7.681 17.122-17.121 17.122h-291.769c-12.434 0-22.55-10.116-22.55-22.551v-287.996h81.173c4.142 0 7.5-3.358 7.5-7.5s-3.358-7.5-7.5-7.5h-81.174v-69.63c0-12.434 10.116-22.55 22.55-22.55h32.066v22.052c0 12.576 10.231 22.807 22.807 22.807 4.142 0 7.5-3.358 7.5-7.5s-3.358-7.5-7.5-7.5c-4.305 0-7.807-3.502-7.807-7.807v-22.052h257.458v22.052c0 12.576 10.231 22.807 22.807 22.807 4.142 0 7.5-3.358 7.5-7.5s-3.358-7.5-7.5-7.5c-4.305 0-7.807-3.502-7.807-7.807v-22.052h66.124c12.434 0 22.55 10.116 22.55 22.55zm-350.391 137.773h-35.714c-8.074 0-14.643 6.569-14.643 14.643v35.714c0 8.074 6.569 14.643 14.643 14.643h35.714c8.074 0 14.643-6.569 14.643-14.643v-35.714c0-8.075-6.569-14.643-14.643-14.643zm-.357 50h-35v-35h35zm66.559-77.773h35.714c8.074 0 14.643-6.569 14.643-14.643v-35.714c0-8.074-6.569-14.643-14.643-14.643h-35.714c-8.074 0-14.643 6.569-14.643 14.643v35.714c0 8.074 6.569 14.643 14.643 14.643zm.357-50h35v35h-35zm101.907 220.546c-.186-3.977-3.469-7.143-7.492-7.143-4.142 0-7.5 3.358-7.5 7.5 0 8.074 6.569 14.643 14.643 14.643h35.714c8.074 0 14.643-6.569 14.643-14.643v-35.714c0-8.074-6.569-14.643-14.643-14.643h-35.714c-8.074 0-14.643 6.569-14.643 14.643v10.3c0 4.142 3.358 7.5 7.5 7.5s7.5-3.358 7.5-7.5v-9.943h35v35zm-102.264-77.773h35.714c8.074 0 14.643-6.569 14.643-14.643v-35.714c0-8.074-6.569-14.643-14.643-14.643h-35.714c-8.074 0-14.643 6.569-14.643 14.643v35.714c0 8.074 6.569 14.643 14.643 14.643zm.357-50h35v35h-35zm-.357 142.773h35.714c8.074 0 14.643-6.569 14.643-14.643v-35.714c0-8.074-6.569-14.643-14.643-14.643h-35.714c-8.074 0-14.643 6.569-14.643 14.643v35.714c0 8.074 6.569 14.643 14.643 14.643zm.357-50h35v35h-35z"/></g></svg>

<?xml version="1.0" encoding="UTF-8" standalone="no"?>
<!DOCTYPE svg PUBLIC "-//W3C//DTD SVG 1.1//EN" "http://www.w3.org/Graphics/SVG/1.1/DTD/svg11.dtd">
<svg width="100%" height="100%" viewBox="0 0 512 512" version="1.1" xmlns="http://www.w3.org/2000/svg" xmlns:xlink="http://www.w3.org/1999/xlink" xml:space="preserve" xmlns:serif="http://www.serif.com/" style="fill-rule:evenodd;clip-rule:evenodd;stroke-linejoin:round;stroke-miterlimit:2;">
    <g>
        <path d="M391.017,251.454L426.731,251.454C434.805,251.454 441.374,244.885 441.374,236.811L441.374,201.097C441.374,193.023 434.805,186.454 426.731,186.454L391.017,186.454C382.943,186.454 376.374,193.023 376.374,201.097L376.374,236.811C376.374,244.885 382.943,251.454 391.017,251.454ZM391.374,201.454L426.374,201.454L426.374,236.454L391.374,236.454L391.374,201.454ZM391.017,346.454L426.731,346.454C434.805,346.454 441.374,339.885 441.374,331.811L441.374,296.097C441.374,288.023 434.805,281.454 426.731,281.454L391.017,281.454C382.943,281.454 376.374,288.023 376.374,296.097L376.374,331.811C376.374,339.885 382.943,346.454 391.017,346.454ZM391.374,296.454L426.374,296.454L426.374,331.454L391.374,331.454L391.374,296.454ZM289.101,251.454L324.815,251.454C332.889,251.454 339.458,244.885 339.458,236.811L339.458,201.097C339.458,193.023 332.889,186.454 324.815,186.454L289.101,186.454C281.027,186.454 274.458,193.023 274.458,201.097L274.458,236.811C274.458,244.885 281.027,251.454 289.101,251.454ZM289.458,201.454L324.458,201.454L324.458,236.454L289.458,236.454L289.458,201.454ZM120.983,372L85.269,372C77.195,372 70.626,378.569 70.626,386.643L70.626,422.357C70.626,430.431 77.195,437 85.269,437L120.983,437C129.057,437 135.626,430.431 135.626,422.357L135.626,386.643C135.626,378.569 129.057,372 120.983,372ZM120.626,422L85.626,422L85.626,387L120.626,387L120.626,422ZM120.983,186.454L85.269,186.454C77.195,186.454 70.626,193.023 70.626,201.097L70.626,236.811C70.626,244.885 77.195,251.454 85.269,251.454L120.983,251.454C129.057,251.454 135.626,244.885 135.626,236.811L135.626,201.097C135.626,193.022 129.057,186.454 120.983,186.454ZM120.626,236.454L85.626,236.454L85.626,201.454L120.626,201.454L120.626,236.454ZM289.101,344.227L324.815,344.227C332.889,344.227 339.458,337.658 339.458,329.584L339.458,293.87C339.458,285.796 332.889,279.227 324.815,279.227L289.101,279.227C281.027,279.227 274.458,285.796 274.458,293.87L274.458,329.584C274.458,337.658 281.027,344.227 289.101,344.227ZM289.458,294.227L324.458,294.227L324.458,329.227L289.458,329.227L289.458,294.227ZM448.823,34.274L416.757,34.274L416.757,22.807C416.757,10.231 406.526,0 393.95,0L390.506,0C377.931,0 367.7,10.231 367.7,22.807L367.7,34.274L144.3,34.274L144.3,22.807C144.3,10.231 134.069,0 121.493,0L118.049,0C105.473,0 95.242,10.231 95.242,22.807L95.242,34.274L63.177,34.274C42.472,34.274 25.627,51.119 25.627,71.824L25.627,474.5C25.627,495.178 42.449,512 63.127,512L448.875,512C469.553,512 486.375,495.178 486.375,474.5L486.375,71.824C486.374,51.119 469.529,34.274 448.823,34.274ZM382.7,22.807C382.7,18.502 386.202,15 390.507,15L393.951,15C398.256,15 401.758,18.502 401.758,22.807L401.758,34.274L382.7,34.274L382.7,22.807ZM110.243,22.807C110.243,18.502 113.745,15 118.05,15L121.494,15C125.799,15 129.301,18.502 129.301,22.807L129.301,34.274L110.244,34.274L110.244,22.807L110.243,22.807ZM471.374,474.5C471.374,486.907 461.281,497 448.874,497L63.126,497C50.719,497 40.626,486.907 40.626,474.5L40.626,474.453C46.91,479.188 54.721,482 63.177,482L367.26,482C377.29,482 386.72,478.094 393.812,471.001L471.374,393.439L471.374,474.5ZM386.159,457.441C386.747,455.014 387.067,452.483 387.067,449.878L387.067,399.814C387.067,390.374 394.748,382.693 404.189,382.693L454.252,382.693C456.857,382.693 459.388,382.373 461.815,381.785L386.159,457.441ZM471.374,141.454L151.8,141.454C147.658,141.454 144.3,144.812 144.3,148.954C144.3,153.096 147.658,156.454 151.8,156.454L471.374,156.454L471.374,350.572C471.374,360.013 463.693,367.694 454.252,367.694L404.189,367.694C386.477,367.694 372.067,382.104 372.067,399.815L372.067,449.879C372.067,459.32 364.386,467.001 354.946,467.001L63.177,467.001C50.743,467.001 40.627,456.885 40.627,444.45L40.627,156.454L121.8,156.454C125.942,156.454 129.3,153.096 129.3,148.954C129.3,144.812 125.942,141.454 121.8,141.454L40.626,141.454L40.626,71.824C40.626,59.39 50.742,49.274 63.176,49.274L95.242,49.274L95.242,71.326C95.242,83.902 105.473,94.133 118.049,94.133C122.191,94.133 125.549,90.775 125.549,86.633C125.549,82.491 122.191,79.133 118.049,79.133C113.744,79.133 110.242,75.631 110.242,71.326L110.242,49.274L367.7,49.274L367.7,71.326C367.7,83.902 377.931,94.133 390.507,94.133C394.649,94.133 398.007,90.775 398.007,86.633C398.007,82.491 394.649,79.133 390.507,79.133C386.202,79.133 382.7,75.631 382.7,71.326L382.7,49.274L448.824,49.274C461.258,49.274 471.374,59.39 471.374,71.824L471.374,141.454ZM120.983,279.227L85.269,279.227C77.195,279.227 70.626,285.796 70.626,293.87L70.626,329.584C70.626,337.658 77.195,344.227 85.269,344.227L120.983,344.227C129.057,344.227 135.626,337.658 135.626,329.584L135.626,293.87C135.626,285.795 129.057,279.227 120.983,279.227ZM120.626,329.227L85.626,329.227L85.626,294.227L120.626,294.227L120.626,329.227ZM187.185,251.454L222.899,251.454C230.973,251.454 237.542,244.885 237.542,236.811L237.542,201.097C237.542,193.023 230.973,186.454 222.899,186.454L187.185,186.454C179.111,186.454 172.542,193.023 172.542,201.097L172.542,236.811C172.542,244.885 179.111,251.454 187.185,251.454ZM187.542,201.454L222.542,201.454L222.542,236.454L187.542,236.454L187.542,201.454ZM289.449,422C289.263,418.023 285.98,414.857 281.957,414.857C277.815,414.857 274.457,418.215 274.457,422.357C274.457,430.431 281.026,437 289.1,437L324.814,437C332.888,437 339.457,430.431 339.457,422.357L339.457,386.643C339.457,378.569 332.888,372 324.814,372L289.1,372C281.026,372 274.457,378.569 274.457,386.643L274.457,396.943C274.457,401.085 277.815,404.443 281.957,404.443C286.099,404.443 289.457,401.085 289.457,396.943L289.457,387L324.457,387L324.457,422L289.449,422ZM187.185,344.227L222.899,344.227C230.973,344.227 237.542,337.658 237.542,329.584L237.542,293.87C237.542,285.796 230.973,279.227 222.899,279.227L187.185,279.227C179.111,279.227 172.542,285.796 172.542,293.87L172.542,329.584C172.542,337.658 179.111,344.227 187.185,344.227ZM187.542,294.227L222.542,294.227L222.542,329.227L187.542,329.227L187.542,294.227ZM187.185,437L222.899,437C230.973,437 237.542,430.431 237.542,422.357L237.542,386.643C237.542,378.569 230.973,372 222.899,372L187.185,372C179.111,372 172.542,378.569 172.542,386.643L172.542,422.357C172.542,430.431 179.111,437 187.185,437ZM187.542,387L222.542,387L222.542,422L187.542,422L187.542,387Z" style="fill:white;fill-rule:nonzero;"/>
        <path d="M289.449,422C289.263,418.023 285.98,414.857 281.957,414.857C277.815,414.857 274.457,418.215 274.457,422.357C274.457,430.431 281.026,437 289.1,437L324.814,437C332.888,437 339.457,430.431 339.457,422.357L339.457,386.643C339.457,378.569 332.888,372 324.814,372L289.1,372C281.026,372 274.457,378.569 274.457,386.643L274.457,396.943C274.457,401.085 277.815,404.443 281.957,404.443C286.099,404.443 289.457,401.085 289.457,396.943L289.457,387L324.457,387L324.457,422L289.449,422Z" style="fill:rgb(235,113,27);fill-rule:nonzero;"/>
    </g>
</svg>
